plasma/desktoptheme/Monochrome/icons/korgac.svg

<svg width="32" height="32" style="enable-background:new" version="1.1" xmlns="http://www.w3.org/2000/svg">
 <g id="22-22-korgac">
  <rect x="32" y="10" width="22" height="22" style="fill-opacity:.40392157;fill:#2b0000;opacity:.00100002"/>
  <path d="m42.998047 11.996094c-4.970563 0-9 4.029437-9 9s4.029437 9 9 9 9-4.029437 9-9-4.029437-9-9-9zm0 3c3.313708 0 6 2.686292 6 6s-2.686292 6-6 6-6-2.686292-6-6 2.686292-6 6-6zm-0.998047 1.003906v6h6v-2h-4v-4z" style="fill:#aaaaac"/>
 </g>
 <g id="korgac">
  <rect width="32" height="32" style="opacity:.00100002"/>
  <g>
   <circle cx="16" cy="17" r="14" style="opacity:.2"/>
   <circle cx="16" cy="16" r="14" style="fill:#ed4545"/>
   <circle cx="16" cy="16" r="10" style="fill:#4f4f4f"/>
   <rect x="14" y="7" width="4" height="11" rx="2" ry="2.2" style="fill:#ffffff"/>
   <path d="M 16,2 A 14,14 0 0 0 2,16 14,14 0 0 0 2.0214844,16.585938 14,14 0 0 1 16,3 14,14 0 0 1 29.978516,16.414062 14,14 0 0 0 30,16 14,14 0 0 0 16,2 Z" style="fill:#ffffff;opacity:.2"/>
   <rect transform="rotate(90)" x="14" y="-25" width="4" height="11" rx="2" ry="2.2" style="fill:#ffffff"/>
  </g>
 </g>
</svg>

<svg xmlns="http://www.w3.org/2000/svg" width="32" height="32" version="1.1">
 <g id="22-22-korgac">
  <rect style="opacity:0.001" width="22" height="22" x="32" y="10"/>
  <path d="M 42.998047 11.996094 C 38.027484 11.996094 33.998047 16.025531 33.998047 20.996094 C 33.998047 25.966657 38.027484 29.996094 42.998047 29.996094 C 47.96861 29.996094 51.998047 25.966657 51.998047 20.996094 C 51.998047 16.025531 47.96861 11.996094 42.998047 11.996094 z M 42.998047 14.996094 C 46.311755 14.996094 48.998047 17.682386 48.998047 20.996094 C 48.998047 24.309802 46.311755 26.996094 42.998047 26.996094 C 39.684339 26.996094 36.998047 24.309802 36.998047 20.996094 C 36.998047 17.682386 39.684339 14.996094 42.998047 14.996094 z M 42 16 L 42 20 L 42 22 L 44 22 L 48 22 L 48 20 L 44 20 L 44 16 L 42 16 z" style="fill:#aaaaac"/>
 </g>
 <g id="korgac">
  <rect width="32" height="32" x="0" y="0" style="opacity:0.001"/>
  <circle style="opacity:0.2" cx="16" cy="17" r="14"/>
  <circle cx="16" cy="16" r="14" style="fill:#ed4545"/>
  <circle cx="16" cy="16" r="10" style="fill:#4f4f4f"/>
  <rect width="4" height="11" x="14" y="7" rx="2" ry="2.2" style="fill:#ffffff"/>
  <path d="M 16,2 A 14,14 0 0 0 2,16 14,14 0 0 0 2.0214844,16.585938 14,14 0 0 1 16,3 14,14 0 0 1 29.978516,16.414062 14,14 0 0 0 30,16 14,14 0 0 0 16,2 Z" style="opacity:0.2;fill:#ffffff"/>
  <rect width="4" height="11" x="14" y="-25" rx="2" ry="2.2" transform="rotate(90)" style="fill:#ffffff"/>
 </g>
</svg>
